src/assets/img/alert.svg

<svg width="113" height="120" viewBox="0 0 113 120" fill="none" xmlns="http://www.w3.org/2000/svg">
<path d="M83.7718 10H33.2595C30.3366 9.99941 27.4422 10.5746 24.7415 11.6928C22.0409 12.8109 19.587 14.4501 17.5199 16.5168C15.4529 18.5834 13.8132 21.037 12.6945 23.7374C11.5758 26.4378 11 29.3321 11 32.2551V82.7941C11 85.7171 11.5758 88.6114 12.6945 91.3118C13.8132 94.0122 15.4529 96.4658 17.5199 98.5324C19.587 100.599 22.0409 102.238 24.7415 103.356C27.4422 104.475 30.3366 105.05 33.2595 105.049H47.8622L53.8106 115.747C54.183 116.416 54.7236 116.976 55.3789 117.371C56.0342 117.767 56.7815 117.984 57.5466 118.001C58.3118 118.019 59.0683 117.836 59.7411 117.472C60.4139 117.107 60.9798 116.573 61.3825 115.922L68.0912 105.049H83.7449C86.6675 105.049 89.5615 104.474 92.2616 103.355C94.9617 102.237 97.4151 100.597 99.4816 98.5308C101.548 96.4643 103.188 94.0109 104.306 91.3108C105.424 88.6107 106 85.7167 106 82.7941V32.2551C106 26.3573 103.659 20.7007 99.4911 16.5278C95.3233 12.355 89.6695 10.0071 83.7718 10Z" stroke="#2F3645" stroke-width="3" stroke-miterlimit="10"/>
<path d="M53.6502 31.506L28.9167 74.6262C28.315 75.6796 27.9988 76.8747 28 78.091C28.0012 79.3073 28.3197 80.5018 28.9234 81.554C29.5272 82.6061 30.3947 83.4787 31.4386 84.0837C32.4825 84.6888 33.6658 85.0048 34.8691 85H84.1309C85.3342 85.0048 86.5175 84.6888 87.5614 84.0837C88.6053 83.4787 89.4728 82.6061 90.0766 81.554C90.6803 80.5018 90.9988 79.3073 91 78.091C91.0012 76.8747 90.685 75.6796 90.0833 74.6262L65.5551 31.506C64.9584 30.4416 64.093 29.5564 63.0473 28.9404C62.0016 28.3245 60.8129 28 59.6026 28C58.3923 28 57.2037 28.3245 56.158 28.9404C55.1123 29.5564 54.2469 30.4416 53.6502 31.506Z" fill="#FEC420" stroke="#2F3645" stroke-width="5" stroke-linecap="round" stroke-linejoin="round"/>
<path d="M61.6207 62H57.3793L56 49H63L61.6207 62Z" fill="#2F3645"/>
<path d="M59.5 64C60.3284 64 61 63.3284 61 62.5C61 61.6716 60.3284 61 59.5 61C58.6716 61 58 61.6716 58 62.5C58 63.3284 58.6716 64 59.5 64Z" fill="#2F3645"/>
<path d="M59.5 52C61.433 52 63 50.433 63 48.5C63 46.567 61.433 45 59.5 45C57.567 45 56 46.567 56 48.5C56 50.433 57.567 52 59.5 52Z" fill="#2F3645"/>
<path d="M59.5 74C61.433 74 63 72.433 63 70.5C63 68.567 61.433 67 59.5 67C57.567 67 56 68.567 56 70.5C56 72.433 57.567 74 59.5 74Z" fill="#2F3645"/>
</svg>

<svg width="113" height="120" fill="none" xmlns="http://www.w3.org/2000/svg"><path d="M83.772 10H33.259A22.255 22.255 0 0 0 11 32.255v50.54a22.255 22.255 0 0 0 22.26 22.254h14.602l5.949 10.698a4.388 4.388 0 0 0 3.736 2.254 4.396 4.396 0 0 0 3.836-2.079l6.708-10.873h15.654a22.244 22.244 0 0 0 15.737-6.518A22.25 22.25 0 0 0 106 82.794V32.255A22.255 22.255 0 0 0 83.772 10z" stroke="#2F3645" stroke-width="3" stroke-miterlimit="10"/><path d="m53.65 31.506-24.733 43.12a6.973 6.973 0 0 0 .006 6.928 6.88 6.88 0 0 0 2.516 2.53 6.785 6.785 0 0 0 3.43.916h49.262a6.785 6.785 0 0 0 3.43-.916 6.88 6.88 0 0 0 2.516-2.53 6.974 6.974 0 0 0 .006-6.928l-24.528-43.12a6.88 6.88 0 0 0-2.508-2.566 6.786 6.786 0 0 0-6.889 0 6.88 6.88 0 0 0-2.508 2.566z" fill="#FEC420" stroke="#2F3645" stroke-width="5" stroke-linecap="round" stroke-linejoin="round"/><path d="M61.62 62h-4.24L56 49h7l-1.38 13z" fill="#2F3645"/><path d="M59.5 64a1.5 1.5 0 1 0 0-3 1.5 1.5 0 0 0 0 3zM59.5 52a3.5 3.5 0 1 0 0-7 3.5 3.5 0 0 0 0 7zM59.5 74a3.5 3.5 0 1 0 0-7 3.5 3.5 0 0 0 0 7z" fill="#2F3645"/></svg>
